wp-content/themes/portofranco/assets/img/logo-portofranco-blk.svg

<svg fill="none" height="352" viewBox="0 0 360 352" width="360" xmlns="http://www.w3.org/2000/svg" xmlns:xlink="http://www.w3.org/1999/xlink"><clipPath id="a"><path d="m0 0h360v351.818h-360z"/></clipPath><g clip-path="url(#a)" fill="#000"><path d="m308.079 42v51.7015h-51.427v51.4275h-51.428v51.428h-51.427v51.427h-50.449v-51.427h-51.4274v-51.428h-51.9206v.979h50.9416v51.428h51.4274v101.883h-50.9414v.972h51.9204v-51.428h50.449v51.428h51.427v51.427h51.921v-.972h-50.942v-51.427h-51.427v-101.883h51.427v-51.428h51.428v-51.4276h51.427v-51.6804h50.942v-1z"/><path d="m93.7015 172.04h-5.4379c-.2144 8.203-4.1945 14.927-10.4113 15.392v.95c9.0036-.229 15.5276-7.21 15.8492-16.335z"/><path d="m76.4303 155.233v-.95c-9.0035.228-15.5276 7.21-15.8491 16.335h5.4378c.2144-8.204 4.1946-14.928 10.4113-15.392z"/><path d="m76.4303 188.382v-.95c-6.2167-.458-10.1897-7.189-10.4113-15.392h-5.4378c.3215 9.125 6.8456 16.106 15.8491 16.335z"/><path d="m88.2636 170.625h5.4379c-.3216-9.125-6.8456-16.106-15.8492-16.335v.95c6.2168.458 10.1898 7.189 10.4113 15.392z"/><path d="m117.204 209.419v12.548h5.209v-14.921h2.844v-.95h-12.312v.708l.471.092c3.316.665 3.788.851 3.788 2.509z"/><path d="m133.067 234.522c2.365 3.08 5.209 5.209 11.126 4.737v-.707c-2.129-.708-2.365-1.422-4.502-4.023l-7.81-9.711h-2.13c-2.122 0-2.908-.193-4.073-1.422h-1.293z"/><path d="m133.389 221.216c3.365-1.279 5.366-3.744 5.366-7.06 0-5.209-4.259-8.053-11.605-8.053h-.471v.951c4.259 0 6.631 2.601 6.631 7.102 0 4.502-2.129 7.103-6.395 7.103h-.236v.708h2.308c1.5 0 3.001-.222 4.409-.758z"/><path d="m127.622 238.545-.707-.093c-4.166-.572-4.502-.85-4.502-2.508v-12.548h-5.209v12.548c0 1.658-.472 1.843-3.788 2.508l-.471.093v.707h14.677z"/><path d="m187.81 290.165-.707-.093c-4.166-.571-4.502-.85-4.502-2.508v-12.548h-5.209v12.548c0 1.658-.329 1.944-4.502 2.508l-.707.093v.708h15.627z"/><path d="m191.126 261.518 2.601 4.023h.707l-1.186-7.81h-6.395v.95h.95c1.658 0 1.658.329 3.316 2.844z"/><path d="m173.133 258.674v-.95h-6.395l-1.187 7.81h.708l2.601-4.023c1.658-2.508 1.658-2.844 3.315-2.844h.951z"/><path d="m182.601 273.594v-14.92h2.844v-.943h-10.89v.943h2.837v14.92z"/><path d="m27.4895 135.768-.7074-.093c-4.166-.571-4.5018-.85-4.5018-2.508v-12.548h-5.2092v12.548c0 1.658-.4717 1.844-3.7873 2.508l-.4716.093v.708h14.6773z"/><path d="m17.0711 106.642v12.548h5.2092v-14.92h2.844v-.95h-12.3121v.707l.4716.093c3.3156.664 3.7873.85 3.7873 2.508z"/><path d="m33.2561 118.44c3.3656-1.279 5.3664-3.744 5.3664-7.06 0-5.209-4.2589-8.053-11.6046-8.053h-.4716v.95c4.2588 0 6.6312 2.601 6.6312 7.103s-2.1295 7.103-6.3954 7.103h-.2358v.707h2.308c1.5006 0 3.0012-.221 4.4018-.757z"/><path d="m242.675 136.719h.707v-6.853-2.151-7.339h-1.179v7.339l-5.509-7.339h-6.367z"/><path d="m242.203 108.779v10.183h1.186v-10.183c0-3.08.951-4.309 3.788-4.881l.471-.092v-.708h-9.711v.708l.472.092c2.844.565 3.787 1.801 3.787 4.881z"/><path d="m219.473 118.962h1.179v-9.426l-1.179-1.515z"/><path d="m224.918 135.532-.472-.093c-2.844-.571-3.787-1.8-3.787-4.88v-10.183h-1.186v10.183c0 3.08-.951 4.309-3.787 4.88l-.472.093v.708h9.711v-.708z"/><path d="m219.944 106.642 9.304 12.312h6.381l-11.897-15.863h-8.525v.707h.95c1.658 0 2.273.808 3.787 2.844z"/><path d="m283.891 85.5268v-.9504c-5.988-.4573-10.175-7.1885-10.404-15.3918h-5.445c.314 9.1251 6.617 16.1064 15.849 16.3351z"/><path d="m283.891 52.3779v-.9503c-9.232.2286-15.535 7.21-15.849 16.335h5.445c.229-8.2032 4.423-14.9273 10.404-15.3918z"/><path d="m293.123 56.401 2.844 4.5018h.708l-.951-6.6313c-2.843-1.8936-6.395-2.8439-10.418-2.8439v.9503c2.844 0 5.917 1.6578 7.81 4.0231z"/><path d="m297.625 75.1084h-.707l-3.787 5.445c-1.894 2.3652-4.502 3.7872-7.811 4.023v.9504c3.788 0 7.811-.9504 10.655-2.844l1.657-7.5744z"/><path d="m86.1413 260.882 2.844 4.502h.7074l-.9503-7.81h-10.4185v.95h4.2589c2.3652 0 2.701.993 3.5514 2.365z"/><path d="m64.5899 258.281.4716.093c3.3156.665 3.7873.85 3.7873 2.508v12.548h5.2092v-14.92h2.844v-.951h-12.3121v.708z"/><path d="m64.5899 290.715h14.6773v-.707l-.7074-.093c-4.166-.572-4.5018-.85-4.5018-2.508v-12.548h-5.2092v12.548c0 1.658-.4717 1.844-3.7873 2.508l-.4716.093z"/><path d="m75.4871 274.616h5.2092c2.1294 0 2.601.951 3.5514 5.209h.7074v-11.361h-.7074c-.9504 4.259-1.422 5.209-3.5514 5.209h-5.2092v.95z"/><path d="m173.776 173.94h8.389l-.336-.95h-7.696z"/><path d="m189.189 172.754-6.817-18.707h-.714c-.736.957-2.358 1.422-3.566 1.422h-.464l6.174 17.285h5.395z"/><path d="m187.753 183.88c.95 2.608-.036 3.266-2.637 3.787l-1.186.236v.708h13.684v-.708l-.614-.143c-1.987-.471-2.809-1.279-3.852-4.116l-3.444-9.475h-5.267z"/><path d="m166.266 188.618h5.824v-.708l-1.186-.235c-2.609-.522-3.838-1.187-2.844-3.788l3.58-9.711h-1.265l-3.502 9.475c-1.086 2.844-1.893 3.645-3.88 4.116l-.614.143v.708h3.88z"/><path d="m177.492 158.091-.579-1.636-6.009 16.299h1.264z"/><path d="m350.818 17.757h-5.438c-.214 8.2033-4.195 14.9274-10.411 15.3919v.9504c9.003-.2287 15.527-7.2101 15.849-16.3351z"/><path d="m333.547.950377v-.950377c-9.004.228662-15.528 7.21001-15.849 16.3351h5.437c.215-8.2033 4.195-14.9274 10.412-15.391868z"/><path d="m333.547 34.0993v-.9504c-6.217-.4573-10.19-7.1886-10.412-15.3919h-5.437c.321 9.1251 6.845 16.1064 15.849 16.3351z"/><path d="m345.38 16.3351h5.438c-.322-9.12509-6.846-16.106438-15.849-16.3351v.950377c6.216.457323 10.189 7.188573 10.411 15.391823z"/><path d="m232.135 342.136v.95c9.004-.228 15.528-7.21 15.849-16.335h-5.438c-.214 8.203-4.194 14.928-10.411 15.392z"/><path d="m230.72 308.987c-9.003.229-15.527 7.21-15.849 16.335h5.438c.214-8.203 4.194-14.927 10.411-15.392v-.95z"/><path d="m214.871 326.744c.322 9.125 6.846 16.106 15.849 16.335v-.95c-6.217-.458-10.19-7.189-10.411-15.392h-5.438z"/><path d="m232.135 308.987v.95c6.217.458 10.19 7.189 10.411 15.392h5.438c-.321-9.125-6.845-16.106-15.849-16.335z"/></g></svg>

<svg width="360" height="352" viewBox="0 0 360 352" fill="none" xmlns="http://www.w3.org/2000/svg">
<g clip-path="url(#clip0_1_3)">
<path d="M308.079 42.2739V93.7015H256.652V145.129H205.224V196.557H153.797V247.984H103.348V196.557H51.9206V145.129H0V146.108H50.9416V197.536H102.369V299.419H51.4276V300.391H103.348V248.963H153.797V300.391H205.224V351.818H257.145V350.846H206.203V299.419H154.776V197.536H206.203V146.108H257.631V94.6804H309.058V43.2529H360V42.2739H308.079Z" fill="black"/>
<path d="M93.7015 172.04H88.2636C88.0492 180.243 84.0691 186.967 77.8523 187.432V188.382C86.8559 188.153 93.3799 181.172 93.7015 172.047V172.04Z" fill="black"/>
<path d="M76.4303 155.233V154.283C67.4268 154.511 60.9027 161.493 60.5812 170.618H66.019C66.2334 162.414 70.2136 155.69 76.4303 155.226V155.233Z" fill="black"/>
<path d="M76.4303 188.382V187.432C70.2136 186.974 66.2406 180.243 66.019 172.04H60.5812C60.9027 181.165 67.4268 188.146 76.4303 188.375V188.382Z" fill="black"/>
<path d="M88.2636 170.625H93.7015C93.3799 161.5 86.8559 154.519 77.8523 154.29V155.24C84.0691 155.698 88.0421 162.429 88.2636 170.632V170.625Z" fill="black"/>
<path d="M117.204 209.419V221.967H122.413V207.046H125.257V206.096H112.945V206.804L113.416 206.896C116.732 207.561 117.204 207.747 117.204 209.405V209.419Z" fill="black"/>
<path d="M133.067 234.522C135.432 237.602 138.276 239.731 144.193 239.259V238.552C142.064 237.844 141.828 237.13 139.691 234.529L131.881 224.818H129.751C127.629 224.818 126.843 224.625 125.678 223.396H124.385L133.067 234.522Z" fill="black"/>
<path d="M133.389 221.216C136.754 219.937 138.755 217.472 138.755 214.156C138.755 208.947 134.496 206.103 127.15 206.103H126.679V207.054C130.938 207.054 133.31 209.655 133.31 214.156C133.31 218.658 131.181 221.259 126.915 221.259H126.679V221.967H128.987C130.487 221.967 131.988 221.745 133.396 221.209L133.389 221.216Z" fill="black"/>
<path d="M127.622 238.545L126.915 238.452C122.749 237.88 122.413 237.602 122.413 235.944V223.396H117.204V235.944C117.204 237.602 116.732 237.787 113.416 238.452L112.945 238.545V239.252H127.622V238.545Z" fill="black"/>
<path d="M187.81 290.165L187.103 290.072C182.937 289.501 182.601 289.222 182.601 287.564V275.016H177.392V287.564C177.392 289.222 177.063 289.508 172.89 290.072L172.183 290.165V290.873H187.81V290.165Z" fill="black"/>
<path d="M191.126 261.518L193.727 265.541H194.434L193.248 257.731H186.853V258.681H187.803C189.461 258.681 189.461 259.01 191.119 261.525L191.126 261.518Z" fill="black"/>
<path d="M173.133 258.674V257.724H166.738L165.551 265.534H166.259L168.86 261.511C170.518 259.003 170.518 258.667 172.175 258.667H173.126L173.133 258.674Z" fill="black"/>
<path d="M182.601 273.594V258.674H185.445V257.731H174.555V258.674H177.392V273.594H182.601Z" fill="black"/>
<path d="M27.4895 135.768L26.7821 135.675C22.6161 135.104 22.2803 134.825 22.2803 133.167V120.619H17.0711V133.167C17.0711 134.825 16.5994 135.011 13.2838 135.675L12.8122 135.768V136.476H27.4895V135.768Z" fill="black"/>
<path d="M17.0711 106.642V119.19H22.2803V104.27H25.1243V103.32H12.8122V104.027L13.2838 104.12C16.5994 104.784 17.0711 104.97 17.0711 106.628V106.642Z" fill="black"/>
<path d="M33.2561 118.44C36.6217 117.161 38.6225 114.696 38.6225 111.38C38.6225 106.171 34.3636 103.327 27.0179 103.327H26.5463V104.277C30.8051 104.277 33.1775 106.878 33.1775 111.38C33.1775 115.882 31.048 118.483 26.7821 118.483H26.5463V119.19H28.8543C30.3549 119.19 31.8555 118.969 33.2561 118.433V118.44Z" fill="black"/>
<path d="M242.675 136.719H243.382V129.866V127.715V120.376H242.203V127.715L236.694 120.376H230.327L242.675 136.719Z" fill="black"/>
<path d="M242.203 108.779V118.962H243.389V108.779C243.389 105.699 244.34 104.47 247.177 103.898L247.648 103.806V103.098H237.937V103.806L238.409 103.898C241.253 104.463 242.196 105.699 242.196 108.779H242.203Z" fill="black"/>
<path d="M219.473 118.962H220.652V109.536L219.473 108.021V118.962Z" fill="black"/>
<path d="M224.918 135.532L224.446 135.439C221.602 134.868 220.659 133.639 220.659 130.559V120.376H219.473V130.559C219.473 133.639 218.522 134.868 215.686 135.439L215.214 135.532V136.24H224.925V135.532H224.918Z" fill="black"/>
<path d="M219.944 106.642L229.248 118.954H235.629L223.732 103.091H215.207V103.798H216.157C217.815 103.798 218.43 104.606 219.944 106.642Z" fill="black"/>
<path d="M283.891 85.5268V84.5764C277.903 84.1191 273.716 77.3879 273.487 69.1846H268.042C268.356 78.3097 274.659 85.291 283.891 85.5197V85.5268Z" fill="black"/>
<path d="M283.891 52.3779V51.4276C274.659 51.6562 268.356 58.6376 268.042 67.7626H273.487C273.716 59.5594 277.91 52.8353 283.891 52.3708V52.3779Z" fill="black"/>
<path d="M293.123 56.401L295.967 60.9028H296.675L295.724 54.2715C292.881 52.3779 289.329 51.4276 285.306 51.4276V52.3779C288.15 52.3779 291.223 54.0357 293.116 56.401H293.123Z" fill="black"/>
<path d="M297.625 75.1084H296.918L293.131 80.5534C291.237 82.9186 288.629 84.3406 285.32 84.5764V85.5268C289.108 85.5268 293.131 84.5764 295.975 82.6828L297.632 75.1084H297.625Z" fill="black"/>
<path d="M86.1413 260.882L88.9853 265.384H89.6927L88.7424 257.574H78.3239V258.524H82.5828C84.948 258.524 85.2838 259.517 86.1342 260.889L86.1413 260.882Z" fill="black"/>
<path d="M64.5899 258.281L65.0615 258.374C68.3771 259.039 68.8488 259.224 68.8488 260.882V273.43H74.058V258.51H76.902V257.559H64.5899V258.267V258.281Z" fill="black"/>
<path d="M64.5899 290.715H79.2672V290.008L78.5598 289.915C74.3938 289.343 74.058 289.065 74.058 287.407V274.859H68.8488V287.407C68.8488 289.065 68.3771 289.251 65.0615 289.915L64.5899 290.008V290.715Z" fill="black"/>
<path d="M75.4871 274.616H80.6963C82.8257 274.616 83.2973 275.567 84.2477 279.825H84.9551V268.464H84.2477C83.2973 272.723 82.8257 273.673 80.6963 273.673H75.4871V274.623V274.616Z" fill="black"/>
<path d="M173.776 173.94H182.165L181.829 172.99H174.133L173.776 173.94Z" fill="black"/>
<path d="M189.189 172.754L182.372 154.047H181.658C180.922 155.004 179.3 155.469 178.092 155.469H177.628L183.802 172.754H189.197H189.189Z" fill="black"/>
<path d="M187.753 183.88C188.703 186.488 187.717 187.146 185.116 187.667L183.93 187.903V188.611H197.614V187.903L197 187.76C195.013 187.289 194.191 186.481 193.148 183.644L189.704 174.169H184.437L187.753 183.88Z" fill="black"/>
<path d="M166.266 188.618H172.09V187.91L170.904 187.675C168.295 187.153 167.066 186.488 168.06 183.887L171.64 174.176H170.375L166.873 183.651C165.787 186.495 164.98 187.296 162.993 187.767L162.379 187.91V188.618H166.259H166.266Z" fill="black"/>
<path d="M177.492 158.091L176.913 156.455L170.904 172.754H172.168L177.492 158.091Z" fill="black"/>
<path d="M350.818 17.757H345.38C345.166 25.9603 341.185 32.6844 334.969 33.1489V34.0993C343.972 33.8706 350.496 26.8892 350.818 17.7642V17.757Z" fill="black"/>
<path d="M333.547 0.950377V0C324.543 0.228662 318.019 7.21001 317.698 16.3351H323.135C323.35 8.1318 327.33 1.4077 333.547 0.943232V0.950377Z" fill="black"/>
<path d="M333.547 34.0993V33.1489C327.33 32.6916 323.357 25.9603 323.135 17.757H317.698C318.019 26.8821 324.543 33.8634 333.547 34.0921V34.0993Z" fill="black"/>
<path d="M345.38 16.3351H350.818C350.496 7.21001 343.972 0.228662 334.969 0V0.950377C341.185 1.4077 345.158 8.13895 345.38 16.3422V16.3351Z" fill="black"/>
<path d="M232.135 342.136V343.086C241.139 342.858 247.663 335.876 247.984 326.751H242.546C242.332 334.954 238.352 341.679 232.135 342.143V342.136Z" fill="black"/>
<path d="M230.72 308.987C221.717 309.216 215.193 316.197 214.871 325.322H220.309C220.523 317.119 224.503 310.395 230.72 309.93V308.98V308.987Z" fill="black"/>
<path d="M214.871 326.744C215.193 335.869 221.717 342.85 230.72 343.079V342.129C224.503 341.671 220.53 334.94 220.309 326.737H214.871V326.744Z" fill="black"/>
<path d="M232.135 308.987V309.937C238.352 310.395 242.325 317.126 242.546 325.329H247.984C247.663 316.204 241.139 309.223 232.135 308.994V308.987Z" fill="black"/>
</g>
<defs>
<clipPath id="clip0_1_3">
<rect width="360" height="351.818" fill="white"/>
</clipPath>
</defs>
</svg>
